src/bright/hiso font bright_s.svg

<svg xmlns="http://www.w3.org/2000/svg" width="90" height="126" viewBox="0 0 90 126"><path fill="#000101" d="M36 45l36-18-36-18-36 18v36l36 18 33-16.5v33l-33-16.5-36 18 36 18 36-18v-36l-36-18zm0 32.65v-29.3l29.29 14.65-29.29 14.65z"/></svg>

<svg xmlns="http://www.w3.org/2000/svg" width="90" height="126"><path fill="#000101" d="M36 45l36-18L36 9 0 27v36l36 18 33-16.5v33L36 81 0 99l36 18 36-18V63L36 45zm0 32.65v-29.3L65.29 63 36 77.65z"/></svg>
